X: 677
T: Planxty Irwin   #2
T: pleraca iar\.bain
R: jig, waltz
%S: s:2 b:9(5+4)
C: O'Carolan
B: O'Neill's 1850 #677
Z: 1997 by John Chambers <jc@trillian.mit.edu>
N: Compacted via repeats and multiple endings [JC]
N: Compacted by using labels and play order [JC]
P: Play (A1A2)x2+(BA2)x2 (or A1A2 BA2 or ...)
Q: "Spirited"
M: 6/8
L: 1/8
K: D
A "^A"|: d2c Bcd | A2G FED | G2E FGA |1,3 C2D E2c :|2,4 D2C D2 |]
"^B"|: A | d>ed d2d | e2e ecA | (A<f)f e2d | dcB AB"^->A2"c |]
